X:51
T:Scottish - Jan, mijne man
S:Blowzabella: Vanilla
M:2/4
L:1/16
K:C
c2cB A2Ac|BAGB AGAB|\
c2cB A2Ac|BAGB A2AB:|\
cGcd e2ed|cBcd efed|
cGcd e2ed|cBcd efed|\
c2cB A2Ac|BAGB AGAB|\
c2cB A2Ac|BAGB A4||
